X: 42690
T: Whistler Of Rosslea, The
R: reel
M: 4/4
K: Adorian
|EFGA B2 AF|BGAF G~E3|DEFG A2 GA|BcAB GAFG|
EFGE FGAF|B=cdB edBA|GA (3BAG AGFA|GEFD E3 B,|
EFGA B2 AF|BGAF G~E3|DEFG AFGA|BcAB GAFG|
EFGE FGAF|B=cdB edBA|GA (3BAG AGFA|GEFD E3 d|
|:e2 Be GeBe|edfd edB=c|d2 Ad FdAd|d=cBA GFDF|
E~e3 feBA|GAB=c d3 e|edBA GA (3BAG|1 AFDF E3 d:|

